!!!OTL: Lockere Wirthschaft.
!!!OTL-incipit: ICH GING MIT LUST WOHL DURCH DEN WALD
!!!ARE: Europa, Mitteleuropa, Deutschland, Niederrhein
!!!SCT: Z1112
!!!TXL: @@DE
!!!YEM: Copyright 1995, estate of Helmut Schaffrath.
**kern	**text
*ICvox	*
*M6/8	*
*k[]	*
*a:	*
!LO:TX:a:t=Vom Niederrhein.	!
{8e	Jch
=1	=1
4e	ging
8a	mit
8bqq	.
8aL	Luſt
8g#J	.
8a	wohl
=2	=2
4b	durch
8cc	den
4a}	Wald,
{8a	klein
=3	=3
8.bL	Vög-
16ccJ	.
8dd	-lein
4ee	hört'
8ee	ich
=4	=4
16ddL	ſin-
16ccJ	.
4b	-gen,
8r	.
8r}	.
{8a	ſie
=5	=5
8b	ſan-
8cc	-gen
8dd	ſo
4ee	jung,
8dd	ſie
=6	=6
8cc	ſan-
8b	-gen
8ee	ſo
4a}	alt,
{8cc	die
=7	=7
8.dd	klei-
16ee	-nen
8dd	Wald-
8cc	-vö-
8b	-ge-
8a	-lein
=8	=8
8g#L	in
8aJ	.
8b/	dem
4e}	Wald,
{8e	ſo
=9	=9
8a	ger-
8a	-ne
8a	hört'
8bL	ich
8ccJ	.
8dd	ſie
=10	=10
(4.ee	ſin-
4.b)	.
=11	=11
4a;	-gen!
8r	.
4r}	.
==	==
!!!AGN: Romanze, Ballade
!!!ONB: ESAC (Essen Associative Code) Database: ZUCCAL
!!!AMT: compound duple
!!!AIN: vox
!!!EED: Helmut Schaffrath
!!!EEV: 1.0
!!!GTL: II. Gau- Leuschen.
!!!URL-scan: https://www.digitale-sammlungen.de/de/view/bsb11160573?page=239
!!!ENC: Anna Maria Matuszewska
!!!EEV: 2025/02/04
*-	*-
